;FLAVOR:Marlin
;TIME:6666
;Filament used: 0m
;Layer height: 0.2

;Generated with Cura_SteamEngine 3.6.0
M82 ;absolute extrusion mode
;Start GCode begin
M104 S200 ;Set Hotend Temperature
M140 S50 ;Set Bed Temperature
M109 ;Wait for Hotend Temperature
M190 ;Wait for Bed Temperature
G28 ;Home
G90 ;absolute positioning
G1 X-4 Y-4
G1 Z0 F3000
G92 E0
G1 F200 E20
G92 E0
;Start GCode end
G92 E0
G1 F1500 E-6.5
;LAYER_COUNT:80
;LAYER:0
M107
G0 F1800 X23.336 Y27.908 Z0.3
;TYPE:SKIRT
G1 F1500 E0
G1 F1080 X23.769 Y27.647 E0.02522
G1 X24.237 Y27.457 E0.05042
G1 X24.73 Y27.344 E0.07566
G1 X25.2 Y27.309 E0.09917
G1 X99.8 Y27.31 E3.82098
G1 X100.304 Y27.35 E3.8462
G1 X100.795 Y27.469 E3.87141
G1 X101.262 Y27.664 E3.89666
G1 X101.692 Y27.929 E3.92186
G1 X102.075 Y28.259 E3.94708
G1 X102.401 Y28.646 E3.97232
G1 X102.662 Y29.079 E3.99755
G1 X102.852 Y29.547 E4.02275
G1 X102.965 Y30.04 E4.04798
G1 X103 Y30.51 E4.07149
G1 X103 Y94.491 E7.26352
G1 X102.96 Y94.995 E7.28874
G1 X102.841 Y95.486 E7.31395
G1 X102.647 Y95.953 E7.33918
G1 X102.381 Y96.383 E7.3644
G1 X102.051 Y96.766 E7.38962
G1 X101.664 Y97.092 E7.41487
G1 X101.231 Y97.353 E7.44009
G1 X100.763 Y97.543 E7.46529
G1 X100.27 Y97.656 E7.49053
G1 X99.8 Y97.691 E7.51404
G1 X25.2 Y97.691 E11.23585
G1 X24.696 Y97.651 E11.26107
G1 X24.205 Y97.532 E11.28628
G1 X23.738 Y97.338 E11.31151
G1 X23.308 Y97.072 E11.33673
G1 X22.925 Y96.742 E11.36195
G1 X22.599 Y96.355 E11.3872
G1 X22.338 Y95.922 E11.41242
G1 X22.148 Y95.454 E11.43762
G1 X22.035 Y94.961 E11.46286
G1 X22 Y94.491 E11.48637
G1 X22 Y30.509 E14.67844
G1 X22.04 Y30.005 E14.70367
G1 X22.159 Y29.514 E14.72887
G1 X22.353 Y29.047 E14.7541
G1 X22.619 Y28.617 E14.77933
G1 X22.949 Y28.234 E14.80455
G1 X23.336 Y27.908 E14.8298
G1 F1500 E8.3298
;MESH:/Users/bshaver/Library/Application Support/snapmakerjs/Tmp/usb-holder_20200217114044961.stl
G0 F1800 X25.805 Y29.835
G0 X25.805 Y31.114
G0 X99.139 Y93.83
G0 X99.209 Y93.9
;TYPE:WALL-INNER
G1 F1500 E14.8298
G1 F1080 X25.791 Y93.9 E18.49263
G1 X25.791 Y31.1 E21.62574
G1 X99.209 Y31.1 E25.28858
G1 X99.209 Y93.9 E28.42168
G0 F1800 X99.609 Y94.3
;TYPE:WALL-OUTER
G1 F1080 X25.391 Y94.3 E32.12443
G1 X25.391 Y30.7 E35.29745
G1 X99.609 Y30.7 E39.0002
G1 X99.609 Y94.3 E42.17322
G0 F1800 X99.409 Y94.3
G0 X98.819 Y93.51
;TYPE:SKIN
G1 F1080 X26.181 Y93.51 E45.79714
G1 X26.181 Y31.49 E48.89133
G1 X98.819 Y31.49 E52.51526
G1 X98.819 Y93.51 E55.60945
G0 F1800 X98.638 Y31.887
G1 F1080 X98.42 Y31.669 E55.62483
G0 F1800 X97.855 Y31.669
G1 F1080 X98.638 Y32.453 E55.68011
G0 F1800 X98.638 Y33.019
G1 F1080 X97.289 Y31.669 E55.77532
G0 F1800 X96.723 Y31.669
G1 F1080 X98.638 Y33.584 E55.91044
G0 F1800 X98.638 Y34.15
G1 F1080 X96.158 Y31.669 E56.08545
G0 F1800 X95.592 Y31.669
G1 F1080 X98.638 Y34.716 E56.3004
G0 F1800 X98.638 Y35.281
G1 F1080 X95.026 Y31.669 E56.55524
G0 F1800 X94.46 Y31.669
G1 F1080 X98.638 Y35.847 E56.85002
G0 F1800 X98.638 Y36.413
G1 F1080 X93.895 Y31.669 E57.1847
G0 F1800 X93.329 Y31.669
G1 F1080 X98.638 Y36.978 E57.55928
G0 F1800 X98.638 Y37.544
G1 F1080 X92.763 Y31.669 E57.97379
G0 F1800 X92.198 Y31.669
G1 F1080 X98.638 Y38.11 E58.42821
G0 F1800 X98.638 Y38.675
G1 F1080 X91.632 Y31.669 E58.92252
G0 F1800 X91.066 Y31.669
G1 F1080 X98.638 Y39.241 E59.45676
G0 F1800 X98.638 Y39.807
G1 F1080 X90.501 Y31.669 E60.03091
G0 F1800 X89.935 Y31.669
G1 F1080 X98.638 Y40.372 E60.64495
G0 F1800 X98.638 Y40.938
G1 F1080 X89.369 Y31.669 E61.29893
G0 F1800 X88.804 Y31.669
G1 F1080 X98.638 Y41.504 E61.99281
G0 F1800 X98.638 Y42.07
G1 F1080 X88.238 Y31.669 E62.72662
G0 F1800 X87.672 Y31.669
G1 F1080 X98.638 Y42.635 E63.50033
G0 F1800 X98.638 Y43.201
G1 F1080 X87.107 Y31.669 E64.31394
G0 F1800 X86.541 Y31.669
G1 F1080 X98.638 Y43.767 E65.16748
G0 F1800 X98.638 Y44.332
G1 F1080 X85.975 Y31.669 E66.06093
G0 F1800 X85.41 Y31.669
G1 F1080 X98.638 Y44.898 E66.99427
G0 F1800 X98.638 Y45.464
G1 F1080 X84.844 Y31.669 E67.96754
G0 F1800 X84.278 Y31.669
G1 F1080 X98.638 Y46.029 E68.98072
G0 F1800 X98.638 Y46.595
G1 F1080 X83.712 Y31.669 E70.03383
G0 F1800 X83.147 Y31.669
G1 F1080 X98.638 Y47.161 E71.12684
G0 F1800 X98.638 Y47.726
G1 F1080 X82.581 Y31.669 E72.25975
G0 F1800 X82.015 Y31.669
G1 F1080 X98.638 Y48.292 E73.43259
G0 F1800 X98.638 Y48.858
G1 F1080 X81.45 Y31.669 E74.64533
G0 F1800 X80.884 Y31.669
G1 F1080 X98.638 Y49.423 E75.89797
G0 F1800 X98.638 Y49.989
G1 F1080 X80.318 Y31.669 E77.19055
G0 F1800 X79.753 Y31.669
G1 F1080 X98.638 Y50.555 E78.52302
G0 F1800 X98.638 Y51.12
G1 F1080 X79.187 Y31.669 E79.89539
G0 F1800 X78.621 Y31.669
G1 F1080 X98.638 Y51.686 E81.3077
G0 F1800 X98.638 Y52.252
G1 F1080 X78.056 Y31.669 E82.75991
G0 F1800 X77.49 Y31.669
G1 F1080 X98.638 Y52.818 E84.25205
G0 F1800 X98.638 Y53.383
G1 F1080 X76.924 Y31.669 E85.78409
G0 F1800 X76.359 Y31.669
G1 F1080 X98.638 Y53.949 E87.35603
G0 F1800 X98.638 Y54.515
G1 F1080 X75.793 Y31.669 E88.9679
G0 F1800 X75.227 Y31.669
G1 F1080 X98.638 Y55.08 E90.61967
G0 F1800 X98.638 Y55.646
G1 F1080 X74.661 Y31.669 E92.31138
G0 F1800 X74.096 Y31.669
G1 F1080 X98.638 Y56.212 E94.04299
G0 F1800 X98.638 Y56.777
G1 F1080 X73.53 Y31.669 E95.81449
G0 F1800 X72.964 Y31.669
G1 F1080 X98.638 Y57.343 E97.62593
G0 F1800 X98.638 Y57.909
G1 F1080 X72.399 Y31.669 E99.47727
G0 F1800 X71.833 Y31.669
G1 F1080 X98.638 Y58.474 E101.36851
G0 F1800 X98.638 Y59.04
G1 F1080 X71.267 Y31.669 E103.29968
G0 F1800 X70.702 Y31.669
G1 F1080 X98.638 Y59.606 E105.27075
G0 F1800 X98.638 Y60.171
G1 F1080 X70.136 Y31.669 E107.28172
G0 F1800 X69.57 Y31.669
G1 F1080 X98.638 Y60.737 E109.33262
G0 F1800 X98.638 Y61.303
G1 F1080 X69.005 Y31.669 E111.42343
G0 F1800 X68.439 Y31.669
G1 F1080 X98.638 Y61.869 E113.55416
G0 F1800 X98.638 Y62.434
G1 F1080 X67.873 Y31.669 E115.7248
G0 F1800 X67.308 Y31.669
G1 F1080 X98.638 Y63 E117.93534
G0 F1800 X98.638 Y63.566
G1 F1080 X66.742 Y31.669 E120.18581
G0 F1800 X66.176 Y31.669
G1 F1080 X98.638 Y64.131 E122.47618
G0 F1800 X98.638 Y64.697
G1 F1080 X65.611 Y31.669 E124.80645
G0 F1800 X65.045 Y31.669
G1 F1080 X98.638 Y65.263 E127.17665
G0 F1800 X98.638 Y65.828
G1 F1080 X64.479 Y31.669 E129.58675
G0 F1800 X63.913 Y31.669
G1 F1080 X98.638 Y66.394 E132.03679
G0 F1800 X98.638 Y66.96
G1 F1080 X63.348 Y31.669 E134.52672
G0 F1800 X62.782 Y31.669
G1 F1080 X98.638 Y67.525 E137.05656
G0 F1800 X98.638 Y68.091
G1 F1080 X62.216 Y31.669 E139.62633
G0 F1800 X61.651 Y31.669
G1 F1080 X98.638 Y68.657 E142.23599
G0 F1800 X98.638 Y69.222
G1 F1080 X61.085 Y31.669 E144.88556
G0 F1800 X60.519 Y31.669
G1 F1080 X98.638 Y69.788 E147.57506
G0 F1800 X98.638 Y70.354
G1 F1080 X59.954 Y31.669 E150.30446
G0 F1800 X59.388 Y31.669
G1 F1080 X98.638 Y70.919 E153.07376
G0 F1800 X98.638 Y71.485
G1 F1080 X58.822 Y31.669 E155.883
G0 F1800 X58.257 Y31.669
G1 F1080 X98.638 Y72.051 E158.73213
G0 F1800 X98.638 Y72.617
G1 F1080 X57.691 Y31.669 E161.6212
G0 F1800 X57.125 Y31.669
G1 F1080 X98.638 Y73.182 E164.55016
G0 F1800 X98.638 Y73.748
G1 F1080 X56.56 Y31.669 E167.51903
G0 F1800 X55.994 Y31.669
G1 F1080 X98.638 Y74.314 E170.52783
G0 F1800 X98.638 Y74.879
G1 F1080 X55.428 Y31.669 E173.57653
G0 F1800 X54.863 Y31.669
G1 F1080 X98.638 Y75.445 E176.66512
G0 F1800 X98.638 Y76.011
G1 F1080 X54.297 Y31.669 E179.79366
G0 F1800 X53.731 Y31.669
G1 F1080 X98.638 Y76.576 E182.96209
G0 F1800 X98.638 Y77.142
G1 F1080 X53.165 Y31.669 E186.17045
G0 F1800 X52.6 Y31.669
G1 F1080 X98.638 Y77.708 E189.41872
G0 F1800 X98.638 Y78.273
G1 F1080 X52.034 Y31.669 E192.70688
G0 F1800 X51.468 Y31.669
G1 F1080 X98.638 Y78.839 E196.03498
G0 F1800 X98.638 Y79.405
G1 F1080 X50.903 Y31.669 E199.40298
G0 F1800 X50.337 Y31.669
G1 F1080 X98.638 Y79.97 E202.81087
G0 F1800 X98.638 Y80.536
G1 F1080 X49.771 Y31.669 E206.25871
G0 F1800 X49.206 Y31.669
G1 F1080 X98.638 Y81.102 E209.74644
G0 F1800 X98.638 Y81.668
G1 F1080 X48.64 Y31.669 E213.2741
G0 F1800 X48.074 Y31.669
G1 F1080 X98.638 Y82.233 E216.84166
G0 F1800 X98.638 Y82.799
G1 F1080 X47.509 Y31.669 E220.44913
G0 F1800 X46.943 Y31.669
G1 F1080 X98.638 Y83.365 E224.09652
G0 F1800 X98.638 Y83.93
G1 F1080 X46.377 Y31.669 E227.78382
G0 F1800 X45.812 Y31.669
G1 F1080 X98.638 Y84.496 E231.51101
G0 F1800 X98.638 Y85.062
G1 F1080 X45.246 Y31.669 E235.27814
G0 F1800 X44.68 Y31.669
G1 F1080 X98.638 Y85.627 E239.08517
G0 F1800 X98.638 Y86.193
G1 F1080 X44.114 Y31.669 E242.93213
G0 F1800 X43.549 Y31.669
G1 F1080 X98.638 Y86.759 E246.81899
G0 F1800 X98.638 Y87.324
G1 F1080 X42.983 Y31.669 E250.74576
G0 F1800 X42.417 Y31.669
G1 F1080 X98.638 Y87.89 E254.71245
G0 F1800 X98.638 Y88.456
G1 F1080 X41.852 Y31.669 E258.71905
G0 F1800 X41.286 Y31.669
G1 F1080 X98.638 Y89.021 E262.76554
G0 F1800 X98.638 Y89.587
G1 F1080 X40.72 Y31.669 E266.85197
G0 F1800 X40.155 Y31.669
G1 F1080 X98.638 Y90.153 E270.97829
G0 F1800 X98.638 Y90.718
G1 F1080 X39.589 Y31.669 E275.14452
G0 F1800 X39.023 Y31.669
G1 F1080 X98.638 Y91.284 E279.35068
G0 F1800 X98.638 Y91.85
G1 F1080 X38.458 Y31.669 E283.59674
G0 F1800 X37.892 Y31.669
G1 F1080 X98.638 Y92.416 E287.88273
G0 F1800 X98.638 Y92.981
G1 F1080 X37.326 Y31.669 E292.20862
G0 F1800 X36.761 Y31.669
G1 F1080 X98.42 Y93.329 E296.55904
G0 F1800 X97.855 Y93.329
G1 F1080 X36.195 Y31.669 E300.90948
G0 F1800 X35.629 Y31.669
G1 F1080 X97.289 Y93.329 E305.25993
G0 F1800 X96.723 Y93.329
G1 F1080 X35.064 Y31.669 E309.61034
G0 F1800 X34.498 Y31.669
G1 F1080 X96.158 Y93.329 E313.96078
G0 F1800 X95.592 Y93.329
G1 F1080 X33.932 Y31.669 E318.31123
G0 F1800 X33.366 Y31.669
G1 F1080 X95.026 Y93.329 E322.66168
G0 F1800 X94.46 Y93.329
G1 F1080 X32.801 Y31.669 E327.01209
G0 F1800 X32.235 Y31.669
G1 F1080 X93.895 Y93.329 E331.36253
G0 F1800 X93.329 Y93.329
G1 F1080 X31.669 Y31.669 E335.71298
G0 F1800 X31.104 Y31.669
G1 F1080 X92.763 Y93.329 E340.06339
G0 F1800 X92.198 Y93.329
G1 F1080 X30.538 Y31.669 E344.41384
G0 F1800 X29.972 Y31.669
G1 F1080 X91.632 Y93.329 E348.76428
G0 F1800 X91.066 Y93.329
G1 F1080 X29.407 Y31.669 E353.11469
G0 F1800 X28.841 Y31.669
G1 F1080 X90.501 Y93.329 E357.46514
G0 F1800 X89.935 Y93.329
G1 F1080 X28.275 Y31.669 E361.81558
G0 F1800 X27.71 Y31.669
G1 F1080 X89.369 Y93.329 E366.166
G0 F1800 X88.804 Y93.329
G1 F1080 X27.144 Y31.669 E370.51644
G0 F1800 X26.578 Y31.669
G1 F1080 X88.238 Y93.329 E374.86689
G0 F1800 X87.672 Y93.329
G1 F1080 X26.36 Y32.017 E379.19278
G0 F1800 X26.36 Y32.583
G1 F1080 X87.107 Y93.329 E383.47877
G0 F1800 X86.541 Y93.329
G1 F1080 X26.36 Y33.149 E387.72483
G0 F1800 X26.36 Y33.714
G1 F1080 X85.975 Y93.329 E391.93099
G0 F1800 X85.41 Y93.329
G1 F1080 X26.36 Y34.28 E396.09725
G0 F1800 X26.36 Y34.846
G1 F1080 X84.844 Y93.329 E400.22358
G0 F1800 X84.278 Y93.329
G1 F1080 X26.36 Y35.411 E404.31001
G0 F1800 X26.36 Y35.977
G1 F1080 X83.712 Y93.329 E408.3565
G0 F1800 X83.147 Y93.329
G1 F1080 X26.36 Y36.543 E412.3631
G0 F1800 X26.36 Y37.108
G1 F1080 X82.581 Y93.329 E416.32979
G0 F1800 X82.015 Y93.329
G1 F1080 X26.36 Y37.674 E420.25655
G0 F1800 X26.36 Y38.24
G1 F1080 X81.45 Y93.329 E424.14341
G0 F1800 X80.884 Y93.329
G1 F1080 X26.36 Y38.806 E427.99034
G0 F1800 X26.36 Y39.371
G1 F1080 X80.318 Y93.329 E431.79737
G0 F1800 X79.753 Y93.329
G1 F1080 X26.36 Y39.937 E435.5645
G0 F1800 X26.36 Y40.503
G1 F1080 X79.187 Y93.329 E439.29169
G0 F1800 X78.621 Y93.329
G1 F1080 X26.36 Y41.068 E442.97899
G0 F1800 X26.36 Y41.634
G1 F1080 X78.056 Y93.329 E446.62639
G0 F1800 X77.49 Y93.329
G1 F1080 X26.36 Y42.2 E450.23385
G0 F1800 X26.36 Y42.765
G1 F1080 X76.924 Y93.329 E453.80141
G0 F1800 X76.359 Y93.329
G1 F1080 X26.36 Y43.331 E457.32908
G0 F1800 X26.36 Y43.897
G1 F1080 X75.793 Y93.329 E460.81681
G0 F1800 X75.227 Y93.329
G1 F1080 X26.36 Y44.462 E464.26464
G0 F1800 X26.36 Y45.028
G1 F1080 X74.661 Y93.329 E467.67253
G0 F1800 X74.096 Y93.329
G1 F1080 X26.36 Y45.594 E471.04053
G0 F1800 X26.36 Y46.159
G1 F1080 X73.53 Y93.329 E474.36863
G0 F1800 X72.964 Y93.329
G1 F1080 X26.36 Y46.725 E477.65679
G0 F1800 X26.36 Y47.291
G1 F1080 X72.399 Y93.329 E480.90506
G0 F1800 X71.833 Y93.329
G1 F1080 X26.36 Y47.856 E484.11342
G0 F1800 X26.36 Y48.422
G1 F1080 X71.267 Y93.329 E487.28186
G0 F1800 X70.702 Y93.329
G1 F1080 X26.36 Y48.988 E490.41039
G0 F1800 X26.36 Y49.554
G1 F1080 X70.136 Y93.329 E493.49899
G0 F1800 X69.57 Y93.329
G1 F1080 X26.36 Y50.119 E496.54769
G0 F1800 X26.36 Y50.685
G1 F1080 X69.005 Y93.329 E499.55648
G0 F1800 X68.439 Y93.329
G1 F1080 X26.36 Y51.251 E502.52535
G0 F1800 X26.36 Y51.816
G1 F1080 X67.873 Y93.329 E505.45432
G0 F1800 X67.308 Y93.329
G1 F1080 X26.36 Y52.382 E508.34338
G0 F1800 X26.36 Y52.948
G1 F1080 X66.742 Y93.329 E511.19252
G0 F1800 X66.176 Y93.329
G1 F1080 X26.36 Y53.513 E514.00175
G0 F1800 X26.36 Y54.079
G1 F1080 X65.611 Y93.329 E516.77109
G0 F1800 X65.045 Y93.329
G1 F1080 X26.36 Y54.645 E519.50049
G0 F1800 X26.36 Y55.21
G1 F1080 X64.479 Y93.329 E522.18999
G0 F1800 X63.913 Y93.329
G1 F1080 X26.36 Y55.776 E524.83955
G0 F1800 X26.36 Y56.342
G1 F1080 X63.348 Y93.329 E527.44922
G0 F1800 X62.782 Y93.329
G1 F1080 X26.36 Y56.907 E530.01899
G0 F1800 X26.36 Y57.473
G1 F1080 X62.216 Y93.329 E532.54883
G0 F1800 X61.651 Y93.329
G1 F1080 X26.36 Y58.039 E535.03876
G0 F1800 X26.36 Y58.605
G1 F1080 X61.085 Y93.329 E537.48876
G0 F1800 X60.519 Y93.329
G1 F1080 X26.36 Y59.17 E539.89886
G0 F1800 X26.36 Y59.736
G1 F1080 X59.954 Y93.329 E542.26907
G0 F1800 X59.388 Y93.329
G1 F1080 X26.36 Y60.302 E544.59934
G0 F1800 X26.36 Y60.867
G1 F1080 X58.822 Y93.329 E546.8897
G0 F1800 X58.257 Y93.329
G1 F1080 X26.36 Y61.433 E549.14017
G0 F1800 X26.36 Y61.999
G1 F1080 X57.691 Y93.329 E551.35071
G0 F1800 X57.125 Y93.329
G1 F1080 X26.36 Y62.564 E553.52135
G0 F1800 X26.36 Y63.13
G1 F1080 X56.56 Y93.329 E555.65209
G0 F1800 X55.994 Y93.329
G1 F1080 X26.36 Y63.696 E557.74289
G0 F1800 X26.36 Y64.261
G1 F1080 X55.428 Y93.329 E559.79379
G0 F1800 X54.863 Y93.329
G1 F1080 X26.36 Y64.827 E561.8048
G0 F1800 X26.36 Y65.393
G1 F1080 X54.297 Y93.329 E563.77587
G0 F1800 X53.731 Y93.329
G1 F1080 X26.36 Y65.958 E565.70704
G0 F1800 X26.36 Y66.524
G1 F1080 X53.165 Y93.329 E567.59828
G0 F1800 X52.6 Y93.329
G1 F1080 X26.36 Y67.09 E569.44962
G0 F1800 X26.36 Y67.655
G1 F1080 X52.034 Y93.329 E571.26106
G0 F1800 X51.468 Y93.329
G1 F1080 X26.36 Y68.221 E573.03256
G0 F1800 X26.36 Y68.787
G1 F1080 X50.903 Y93.329 E574.76417
G0 F1800 X50.337 Y93.329
G1 F1080 X26.36 Y69.353 E576.45584
G0 F1800 X26.36 Y69.918
G1 F1080 X49.771 Y93.329 E578.10761
G0 F1800 X49.206 Y93.329
G1 F1080 X26.36 Y70.484 E579.71949
G0 F1800 X26.36 Y71.05
G1 F1080 X48.64 Y93.329 E581.29142
G0 F1800 X48.074 Y93.329
G1 F1080 X26.36 Y71.615 E582.82346
G0 F1800 X26.36 Y72.181
G1 F1080 X47.509 Y93.329 E584.31561
G0 F1800 X46.943 Y93.329
G1 F1080 X26.36 Y72.747 E585.76781
G0 F1800 X26.36 Y73.312
G1 F1080 X46.377 Y93.329 E587.18012
G0 F1800 X45.812 Y93.329
G1 F1080 X26.36 Y73.878 E588.55253
G0 F1800 X26.36 Y74.444
G1 F1080 X45.246 Y93.329 E589.885
G0 F1800 X44.68 Y93.329
G1 F1080 X26.36 Y75.009 E591.17758
G0 F1800 X26.36 Y75.575
G1 F1080 X44.114 Y93.329 E592.43022
G0 F1800 X43.549 Y93.329
G1 F1080 X26.36 Y76.141 E593.64296
G0 F1800 X26.36 Y76.706
G1 F1080 X42.983 Y93.329 E594.8158
G0 F1800 X42.417 Y93.329
G1 F1080 X26.36 Y77.272 E595.94871
G0 F1800 X26.36 Y77.838
G1 F1080 X41.852 Y93.329 E597.04172
G0 F1800 X41.286 Y93.329
G1 F1080 X26.36 Y78.403 E598.09483
G0 F1800 X26.36 Y78.969
G1 F1080 X40.72 Y93.329 E599.108
G0 F1800 X40.155 Y93.329
G1 F1080 X26.36 Y79.535 E600.08128
G0 F1800 X26.36 Y80.101
G1 F1080 X39.589 Y93.329 E601.01462
G0 F1800 X39.023 Y93.329
G1 F1080 X26.36 Y80.666 E601.90807
G0 F1800 X26.36 Y81.232
G1 F1080 X38.458 Y93.329 E602.76161
G0 F1800 X37.892 Y93.329
G1 F1080 X26.36 Y81.798 E603.57522
G0 F1800 X26.36 Y82.363
G1 F1080 X37.326 Y93.329 E604.34893
G0 F1800 X36.761 Y93.329
G1 F1080 X26.36 Y82.929 E605.08274
G0 F1800 X26.36 Y83.495
G1 F1080 X36.195 Y93.329 E605.77662
G0 F1800 X35.629 Y93.329
G1 F1080 X26.36 Y84.06 E606.4306
G0 F1800 X26.36 Y84.626
G1 F1080 X35.064 Y93.329 E607.04468
G0 F1800 X34.498 Y93.329
G1 F1080 X26.36 Y85.192 E607.61882
G0 F1800 X26.36 Y85.757
G1 F1080 X33.932 Y93.329 E608.15307
G0 F1800 X33.366 Y93.329
G1 F1080 X26.36 Y86.323 E608.64738
G0 F1800 X26.36 Y86.889
G1 F1080 X32.801 Y93.329 E609.10179
G0 F1800 X32.235 Y93.329
